assets/ai/ai-lattes-square.svg

<svg xmlns="http://www.w3.org/2000/svg" width="100%" height="100%" viewBox="-75.52 -43.52 599.04 599.04"><path d="M 48 32 C 21.5 32 0 53.5 0 80 L 0 432 C 0 458.5 21.5 480 48 480 L 400 480 C 426.5 480 448 458.5 448 432 L 448 80 C 448 53.5 426.5 32 400 32 L 48 32 z M 186.25781 96 C 217.87062 96.0622 253.98328 102.76751 291.98438 116.27344 C 307.23086 121.69878 313.2844 125.46653 310.48438 127.81445 C 308.41246 129.54766 294.36917 129.52214 270.10547 127.73828 C 232.1761 124.95031 203.30451 130.22509 188.42188 142.68359 C 165.76452 161.64773 169.21805 203.22033 198.44336 263.18945 C 201.60866 269.68268 204.79818 276.03654 205.52734 277.33008 C 207.22339 280.30617 205.99304 283.07018 203.04102 282.93164 C 201.78357 282.87144 173.47486 279.29406 140.13086 274.97266 C 106.78577 270.65271 78.8041 266.89514 77.9375 266.61914 C 76.45622 266.1419 71.155576 248.45977 68.166016 234.06641 C 67.412776 230.42386 66.307728 220.77787 65.705078 212.61523 C 63.015928 176.1927 70.940424 151.01303 92.177734 128.36914 C 112.40373 106.82245 145.61278 95.920029 186.25781 96 z M 234.23242 154.44531 C 246.2097 154.47836 259.75493 157.12268 270.74414 162.0293 C 287.43473 169.47735 302.23039 182.57724 307.73047 194.75977 C 314.78918 210.39563 308.9105 227.83932 293.78906 236.16602 C 283.76633 241.67924 264.28842 244.55653 251.98047 242.3457 L 251.99414 242.3457 L 251.99414 242.34375 C 225.38071 237.55859 201.45646 221.05559 193.73242 202.17969 C 190.02716 193.1118 190.20248 181.28198 194.1582 174.19922 C 197.73804 167.79387 206.98068 160.38385 215.25781 157.28125 C 220.42427 155.34572 227.04605 154.42548 234.23242 154.44531 z M 321.69922 162.02734 C 327.62732 161.32477 356.88806 189.73302 367.66406 206.65039 C 386.23881 235.82501 387.74753 267.3863 372.02344 297.90625 C 362.3649 316.65671 351.69057 329.62945 333.81836 344.375 C 304.11581 368.86546 269.59069 385.92011 221.91602 399.66016 C 196.3081 407.04552 154.89903 416 146.37109 416 C 144.56313 416 141.1724 410.07184 130.59766 388.38281 L 130.57227 388.39453 C 96.248268 318.06253 75.826172 275.58757 75.826172 274.5332 C 75.826172 272.81308 77.924265 273.05178 98.546875 277.0957 C 134.81739 284.21711 154.19529 286.22624 186.49805 286.23828 C 229.23662 286.25008 264.04005 279.48234 291.08008 265.88086 C 305.38521 258.68473 313.98763 252.30346 321.0332 243.66211 C 329.71173 233.01157 332.49935 225.67753 332.59961 213.33203 C 332.68751 201.58953 331.10488 195.3975 324.31055 181.0293 C 321.62247 175.35202 319.26047 168.83548 319.03516 166.54883 C 318.68335 162.86872 318.98598 162.3405 321.69922 162.02734 z"/></svg>

<svg xmlns="http://www.w3.org/2000/svg" width="100%" height="100%" viewBox="-75.52 -43.52 599.04 599.04"><path d="M48 32C21.5 32 0 53.5 0 80v352c0 26.5 21.5 48 48 48h352c26.5 0 48-21.5 48-48V80c0-26.5-21.5-48-48-48H48zm138.258 64c31.613.062 67.725 6.768 105.726 20.273 15.247 5.426 21.3 9.194 18.5 11.541-2.072 1.734-16.115 1.708-40.379-.076-37.929-2.788-66.8 2.487-81.683 14.946-22.657 18.964-19.204 60.536 10.021 120.505 3.166 6.494 6.355 12.848 7.084 14.141 1.696 2.976.466 5.74-2.486 5.602-1.257-.06-29.566-3.638-62.91-7.96-33.345-4.32-61.327-8.077-62.194-8.353-1.48-.477-6.781-18.16-9.771-32.553-.753-3.642-1.858-13.288-2.46-21.45-2.69-36.423 5.234-61.603 26.472-84.247 20.226-21.547 53.435-32.449 94.08-32.369zm47.974 58.445c11.978.033 25.523 2.678 36.512 7.584 16.69 7.448 31.486 20.548 36.986 32.73 7.06 15.637 1.18 33.08-13.94 41.407-10.024 5.513-29.502 8.39-41.81 6.18h.014v-.002c-26.613-4.785-50.538-21.288-58.262-40.164-3.705-9.068-3.53-20.898.426-27.98 3.58-6.406 12.823-13.816 21.1-16.919 5.166-1.935 11.788-2.856 18.974-2.836zm87.467 7.582c5.928-.702 35.19 27.706 45.965 44.623 18.575 29.175 20.084 60.736 4.36 91.256-9.66 18.75-20.333 31.723-38.206 46.469-29.702 24.49-64.227 41.545-111.902 55.285-25.608 7.386-67.017 16.34-75.545 16.34-1.808 0-5.199-5.928-15.773-27.617l-.026.012c-34.324-70.332-54.746-112.807-54.746-113.862 0-1.72 2.098-1.481 22.72 2.563 36.271 7.121 55.65 9.13 87.952 9.142 42.739.012 77.542-6.756 104.582-20.357 14.305-7.196 22.908-13.578 29.953-22.219 8.679-10.65 11.466-17.984 11.567-30.33.088-11.742-1.495-17.934-8.29-32.303-2.688-5.677-5.05-12.194-5.275-14.48-.352-3.68-.049-4.209 2.664-4.522z"/></svg>
